X:1
T:Title
%%score ( 1 2 ) ( 3 4 )
L:1/8
Q:1/4=107
M:4/4
K:Ab
V:1 treble nm="Grand Piano, Soprano"
V:2 treble 
V:3 bass nm="Choir Pad, I�ve Reached the Port"
V:4 bass 
V:1
 E2 [CA]2 [CA]2 [EA]2 | [EB]2 [Ec]2 [Ae]2 [Ae]2- | [Ae][Ae] [Af]2 [Ae]2 [Ac]2 | %3
w: By~Isaac~Newton~Hugg * * *|||
 BA [Ec]2 [=Dc]2 [EB]2 | Bc [Fd]2 [Fd]2 [Gd]2 | cB [Ac]2 [Ae]2 [Ae]2 | %6
w: |||
 [Ec][DB] [CA]2 [EA]2 [Ec]2- | [Ec][DEB] [CEA]6 | cd [Ae]2 [Af]2 [Ae]2- | [Ae][Ac] [Ae]6 | %10
w: ||||
 cB [EA]2 [CA]2 [=Dc]2 | [=Dc]2 B2- [GB]4 | [GB][Ac] [Bd]2 [Bd]2 [Bd]2 | %13
w: |||
 [Ac][GB] [Ac]2 [Ae]2 [Ae]2 | [EA][FB] [Ec]2 [Ec]2 [DEB]2- | [DEB][CEA] [CEA]6- | [CEA]2 z2 z4 |] %17
w: ||||
V:2
 x8 | x8 | x8 | =D2 z2 z4 | F2 z2 z4 | G2 z2 z4 | x8 | x8 | A2 z2 z4 | x8 | E2 z2 z4 | z2 E2 z4 | %12
 x8 | x8 | x8 | x8 | x8 |] %17
V:3
 E,2 [A,,E,]2 [A,,E,]2 [C,A,]2 | [E,G,]2 A,2[K:treble] C2 C2- | CC D2 C2[K:bass] [F,C]2 | %3
 [F,A,]2 [E,A,]2 [B,,F,A,]2 [E,G,]2 | [D,B,][C,=A,] [B,,B,]2 [B,,B,]2 [E,B,]2 | %5
 CD [A,E]2 [A,C]2 [A,C]2 | [E,G,]2 [F,A,]2 [C,A,]2 [E,A,]2- | [E,A,][E,G,] A,6 | %8
 A,B, [A,C]2 [A,D]2 [A,C]2- | [A,C][A,E] [A,C]2 [A,C]2 [A,C]2 | %10
 [A,,A,][B,,G,] [C,A,]2 [E,A,]2 [F,A,]2 | [B,,A,]2 [E,G,][E,G,] [E,E][E,E] [E,E]2 | %12
 [E,E]2 [E,E]2 [E,E]2 [E,E]2 | [E,E]2 [A,E]2 [A,C]2 [A,C]2 | A,-[D,A,] [E,A,]2 [E,A,]2 [E,G,]2- | %15
 [E,G,][A,,A,] [A,,A,]6- | [A,,A,]2 z2 z4 |] %17
V:4
 x8 | x4[K:treble] x4 | x6[K:bass] x2 | x8 | x8 | E,2 z2 z4 | x8 | x8 | x8 | x8 | x8 | x8 | x8 | %13
 x8 | .C,2 z2 z4 | x8 | x8 |] %17

